shared/images/iconfont/42-kb-iconfont-gear-16.svg

<?xml version="1.0" encoding="UTF-8"?>
<svg width="16px" height="16px" viewBox="0 0 16 16" version="1.1" xmlns="http://www.w3.org/2000/svg" xmlns:xlink="http://www.w3.org/1999/xlink">
    <!-- Generator: sketchtool 54.1 (76490) - https://sketchapp.com -->
    <title>C309983C-ACD3-4BB8-AE95-E282990E59F8</title>
    <desc>Created with sketchtool.</desc>
    <g id="Symbols" stroke="none" stroke-width="1" fill="none" fill-rule="evenodd">
        <g id="42-kb-iconfont-gear-16">
            <g>
                <rect id="icon-area" opacity="0" x="0" y="0" width="16" height="16"></rect>
                <path d="M14.5331919,9.43737286 L13.5450845,8.67194259 C13.5773122,8.44922928 13.5939201,8.22476362 13.5948006,8 L13.5948006,8 C13.5939201,7.77523638 13.5773122,7.55077072 13.5450845,7.32805741 L14.5331919,6.56262714 C15.0071069,6.20453441 15.1359352,5.57665532 14.837703,5.07851046 L14.1230341,3.90991464 C13.8183518,3.41401619 13.1763381,3.19878707 12.6066931,3.40157546 L11.4072922,3.82226995 C11.025065,3.54794277 10.6074456,3.32020453 10.1643897,3.14448438 L9.95931076,1.97588856 C9.85809459,1.40670409 9.33013065,0.992210321 8.71640826,1.00011106 L7.28707039,1.00011106 C6.673348,0.992210321 6.14538406,1.40670409 6.0441679,1.97588856 L5.83908899,3.14448438 C5.3960331,3.32020453 4.97841367,3.54794277 4.59618649,3.82226995 L3.39678558,3.40157546 C2.8271406,3.19878707 2.18512684,3.41401619 1.88044454,3.90991464 L1.16577561,5.07851046 C0.863314786,5.57255576 0.984112564,6.19969229 1.45164318,6.56262714 L2.43975066,7.32805741 C2.41375374,7.55115681 2.40337387,7.77562104 2.4086781,8 L2.4086781,8 C2.40955856,8.22476362 2.42616646,8.44922928 2.4583942,8.67194259 L1.47028672,9.43737286 C0.996371714,9.79546559 0.867543462,10.4233447 1.16577561,10.9214895 L1.88044454,12.0900854 C2.18512684,12.5859838 2.8271406,12.8012129 3.39678558,12.5984245 L4.59618649,12.17773 C4.97841367,12.4520572 5.3960331,12.6797955 5.83908899,12.8555156 L6.0441679,14.0241114 C6.14538406,14.5932959 6.673348,15.0077897 7.28707039,14.9998889 L8.71640826,14.9998889 C9.33013065,15.0077897 9.85809459,14.5932959 9.95931076,14.0241114 L10.1643897,12.8555156 C10.6084176,12.6840942 11.0263502,12.4581499 11.4072922,12.183573 L12.6066931,12.6042675 C13.1763381,12.8070559 13.8183518,12.5918268 14.1230341,12.0959283 L14.837703,10.9273325 C15.1395245,10.4278213 15.0104231,9.79613355 14.5331919,9.43737286 L14.5331919,9.43737286 Z M8.00173933,10.4800096 C6.62886714,10.4800096 5.51593434,9.36743721 5.51593434,7.99500966 C5.51593434,6.62258212 6.62886714,5.51000977 8.00173933,5.51000977 C9.37461151,5.51000977 10.4875443,6.62258212 10.4875443,7.99500966 C10.4875443,9.36743721 9.37461151,10.4800096 8.00173933,10.4800096 Z" id="settings" fill="#000000"></path>
            </g>
        </g>
    </g>
</svg>

<svg xmlns="http://www.w3.org/2000/svg" width="16" height="16" viewBox="0 0 16 16">
    <path fill="#000" fill-rule="nonzero" d="M14.533 9.437l-.988-.765c.032-.223.049-.447.05-.672-.001-.225-.018-.45-.05-.672l.988-.765c.474-.358.603-.986.305-1.484l-.715-1.17c-.305-.495-.947-.71-1.516-.507l-1.2.42a5.796 5.796 0 0 0-1.243-.678L9.96 1.976C9.86 1.406 9.33.992 8.716 1H7.287c-.614-.008-1.142.407-1.243.976L5.84 3.144c-.443.176-.86.404-1.243.678l-1.2-.42c-.569-.203-1.21.012-1.516.508l-.714 1.169a1.121 1.121 0 0 0 .286 1.484l.988.765A4.82 4.82 0 0 0 2.409 8c0 .225.017.45.05.672l-.989.765a1.122 1.122 0 0 0-.304 1.484l.714 1.17c.305.495.947.71 1.517.507l1.2-.42c.381.274.799.502 1.242.678l.205 1.168c.101.57.63.984 1.243.976h1.43c.613.008 1.141-.407 1.242-.976l.205-1.168a5.534 5.534 0 0 0 1.243-.672l1.2.42c.57.203 1.211-.012 1.516-.508l.715-1.169c.302-.5.172-1.13-.305-1.49zM8.002 10.48A2.485 2.485 0 1 1 8 5.51a2.485 2.485 0 0 1 0 4.97z"/>
</svg>
